X:998
T:Miss Langford
T:Lass of Carracastle, The
R:reel
D:Mick O'Brien & Caoimh\'in \'O Raghallaigh: Deadly Buzz
Z:id:hn-reel-998
M:C|
L:1/8
K:D
A2dB ADFA | BdAF GFEG | FDDE FA~A2 | (3Bcd eg fedB |
A3B ADFA | BdAF GFEG | FDDE FA~A2 | (3Bcd eg fddc ||
|: dfaf g2ef | gfed cA~A2 |1 fgaf g2fg | abag fddc :|2 ~B3d cABc | dfag fedB ||

